X: 31
T:VALSE DES RAMEAUX
M:3/4
L:1/4
Q:1/4=100
C:Yves BELOTTEAU
K:C
|:edc|Gce|ag3/2^f/2|g2 e/2g/2|c'ba|f2 d/2f/2|1agf|e3:|2agB|c3|!
|:e2 _e|e2 c|g2 ^f|g2 e|c'ba|gfe|gf3/2d/2|G3|!
d2^c|d2 G|f2 e|f2 d|bag|fed|ced|c3:|!
|ge/2g/2e/2g/2|ge/2g/2e/2g/2|c'ba|d2 f|fd/2f/2d/2f/2|fd/2f/2d/2f/2|agf|e
2g|
|ge/2g/2e/2g/2|ge/2g/2e/2g/2|!
c'bc'|d'aa|d'/2c'/2b/2d'/2c'/2b/2|c'gg|b/2a/2g/2f/2e/2f/2|g3|
d'/2c'/2b/2d'/2c'/2b/2|c'gg|b/2a/2g/2f/2e/2d/2|c3|
